packages/sources/assets/src/assets/flag-nz.svg

<svg width="28" height="20" viewBox="0 0 28 20" fill="none" xmlns="http://www.w3.org/2000/svg">
<rect width="28" height="20" rx="2" fill="white"/>
<mask id="mask0_503_4008" style="mask-type:alpha" maskUnits="userSpaceOnUse" x="0" y="0" width="28" height="20">
<rect width="28" height="20" rx="2" fill="white"/>
</mask>
<g mask="url(#mask0_503_4008)">
<rect width="28" height="20" fill="#0A17A7"/>
<path d="M0 -0.333333H-0.901086L-0.21693 0.253086L4.33333 4.15331V5.16179L-0.193746 8.39542L-0.333333 8.49513V8.66667V9.33333V9.93475L0.176666 9.616L5.42893 6.33333H6.55984L11.0821 9.56351C11.176 9.6306 11.2886 9.66667 11.404 9.66667C11.9182 9.66667 12.1548 9.02698 11.7644 8.69237L7.66667 5.18002V4.17154L12.0542 1.03762C12.2294 0.912475 12.3333 0.710428 12.3333 0.495127V0V-0.601416L11.8233 -0.282666L6.57107 3H5.44016L0.860413 -0.271244L0.773488 -0.333333H0.666667H0Z" fill="#FF2E3B" stroke="white" stroke-width="0.666667"/>
<path fill-rule="evenodd" clip-rule="evenodd" d="M0 3.33333V6H4.66667V9.33333C4.66667 9.70152 4.96514 10 5.33333 10H6.66667C7.03486 10 7.33333 9.70152 7.33333 9.33333V6H12C12.3682 6 12.6667 5.70152 12.6667 5.33333V4C12.6667 3.63181 12.3682 3.33333 12 3.33333H7.33333V0H4.66667V3.33333H0Z" fill="white"/>
<path fill-rule="evenodd" clip-rule="evenodd" d="M0 4H5.33333V3.33333V0H6.66667V3.33333V4H12V5.33333H6.66667V6V9.33333H5.33333V6V5.33333H0V4Z" fill="#FF2E3B"/>
<path fill-rule="evenodd" clip-rule="evenodd" d="M20 17.3333L19.0572 17.6095L19.3333 16.6667L19.0572 15.7239L20 16L20.9428 15.7239L20.6667 16.6667L20.9428 17.6095L20 17.3333Z" fill="#CA1931"/>
<path fill-rule="evenodd" clip-rule="evenodd" d="M20 4.66666L19.0572 4.9428L19.3333 3.99999L19.0572 3.05718L20 3.33332L20.9428 3.05718L20.6667 3.99999L20.9428 4.9428L20 4.66666Z" fill="#CA1931"/>
<path fill-rule="evenodd" clip-rule="evenodd" d="M24 8.66666L23.0572 8.9428L23.3333 7.99999L23.0572 7.05718L24 7.33332L24.9428 7.05718L24.6667 7.99999L24.9428 8.9428L24 8.66666Z" fill="#CA1931"/>
<path fill-rule="evenodd" clip-rule="evenodd" d="M16 10L15.0572 10.2761L15.3333 9.33333L15.0572 8.39052L16 8.66667L16.9428 8.39052L16.6667 9.33333L16.9428 10.2761L16 10Z" fill="#CA1931"/>
</g>
</svg>

<svg width="28" height="20" fill="none" xmlns="http://www.w3.org/2000/svg"><rect width="28" height="20" rx="2" fill="#fff"/><mask id="a" style="mask-type:alpha" maskUnits="userSpaceOnUse" x="0" y="0" width="28" height="20"><rect width="28" height="20" rx="2" fill="#fff"/></mask><g mask="url(#a)"><path fill="#0A17A7" d="M0 0h28v20H0z"/><path d="M0-.333h-.901l.684.586 4.55 3.9v1.009L-.194 8.395l-.14.1v1.44l.51-.319L5.43 6.333h1.13l4.523 3.23a.554.554 0 0 0 .682-.87L7.667 5.18V4.172l4.387-3.134a.667.667 0 0 0 .28-.543V-.6l-.51.318L6.57 3H5.44L.86-.271.772-.333H0Z" fill="#FF2E3B" stroke="#fff" stroke-width=".667"/><path fill-rule="evenodd" clip-rule="evenodd" d="M0 3.333V6h4.667v3.333c0 .369.298.667.666.667h1.334a.667.667 0 0 0 .666-.667V6H12a.667.667 0 0 0 .667-.667V4A.667.667 0 0 0 12 3.333H7.333V0H4.667v3.333H0Z" fill="#fff"/><path fill-rule="evenodd" clip-rule="evenodd" d="M0 4h5.333V0h1.334v4H12v1.333H6.667v4H5.333v-4H0V4Z" fill="#FF2E3B"/><path fill-rule="evenodd" clip-rule="evenodd" d="m20 17.333-.943.277.276-.943-.276-.943L20 16l.943-.276-.276.943.276.942-.943-.276Zm0-12.666-.943.276.276-.943-.276-.943.943.276.943-.276-.276.943.276.943L20 4.667Zm4 4-.943.276.276-.943-.276-.943.943.276.943-.276-.276.943.276.943L24 8.667ZM16 10l-.943.276.276-.943-.276-.942.943.276.943-.276-.276.942.276.943L16 10Z" fill="#CA1931"/></g></svg>
